to fern :size :sign
    if :size < 1 [ stop ]
    fd :size
    rt 70 * :sign fern :size * 0.5 :sign * -1 lt 70 * :sign
    fd :size
    lt 70 * :sign fern :size * 0.5 :sign rt 70 * :sign
    rt 7 * :sign fern :size - 1 :sign lt 7 * :sign
    bk :size * 2
end
pu bk 400 lt 90 fd 300 rt 90 pd
fern 40 1
